src/assets/icons/swapping.svg

<?xml version="1.0" encoding="UTF-8"?>
<svg width="100px" height="100px" viewBox="0 0 100 100" version="1.1" xmlns="http://www.w3.org/2000/svg" xmlns:xlink="http://www.w3.org/1999/xlink">
    <title>蒙版</title>
    <defs>
        <linearGradient x1="50%" y1="0%" x2="50%" y2="100%" id="linearGradient-1">
            <stop stop-color="#F0C002" offset="0%"></stop>
            <stop stop-color="#F9E204" stop-opacity="0" offset="100%"></stop>
        </linearGradient>
        <circle id="path-2" cx="50" cy="50" r="50"></circle>
        <filter x="-16.2%" y="-10.4%" width="132.3%" height="120.9%" filterUnits="objectBoundingBox" id="filter-4">
            <feOffset dx="0" dy="2" in="SourceAlpha" result="shadowOffsetOuter1"></feOffset>
            <feGaussianBlur stdDeviation="1.5" in="shadowOffsetOuter1" result="shadowBlurOuter1"></feGaussianBlur>
            <feColorMatrix values="0 0 0 0 0.0909838916   0 0 0 0 0.0532071747   0 0 0 0 0.177747662  0 0 0 0.0954766757 0" type="matrix" in="shadowBlurOuter1" result="shadowMatrixOuter1"></feColorMatrix>
            <feMerge>
                <feMergeNode in="shadowMatrixOuter1"></feMergeNode>
                <feMergeNode in="SourceGraphic"></feMergeNode>
            </feMerge>
        </filter>
        <radialGradient cx="93.6054486%" cy="5.39642828%" fx="93.6054486%" fy="5.39642828%" r="104.951633%" gradientTransform="translate(0.936054,0.053964),scale(1.000000,0.865612),rotate(122.903077),translate(-0.936054,-0.053964)" id="radialGradient-5">
            <stop stop-color="#FFFFFF" stop-opacity="0.700688716" offset="0%"></stop>
            <stop stop-color="#3BC164" stop-opacity="0.2" offset="100%"></stop>
        </radialGradient>
        <radialGradient cx="93.4411675%" cy="9.30179374%" fx="93.4411675%" fy="9.30179374%" r="92.8762347%" gradientTransform="translate(0.934412,0.093018),scale(1.000000,0.865612),rotate(120.420680),scale(1.000000,0.962800),translate(-0.934412,-0.093018)" id="radialGradient-6">
            <stop stop-color="#FFFFFF" offset="0%"></stop>
            <stop stop-color="#FFFFFF" stop-opacity="0" offset="100%"></stop>
        </radialGradient>
        <linearGradient x1="50%" y1="50%" x2="36.4618576%" y2="13.3048326%" id="linearGradient-7">
            <stop stop-color="#FFD059" offset="0%"></stop>
            <stop stop-color="#FFFB79" offset="100%"></stop>
        </linearGradient>
        <linearGradient x1="64.7813996%" y1="6.83083736%" x2="50%" y2="50%" id="linearGradient-8">
            <stop stop-color="#FFFFFF" stop-opacity="0.9" offset="0%"></stop>
            <stop stop-color="#FFFFFF" stop-opacity="0" offset="100%"></stop>
        </linearGradient>
    </defs>
    <g id="扩展程序" stroke="none" stroke-width="1" fill="none" fill-rule="evenodd">
        <g id="兑换中" transform="translate(-138.000000, -226.000000)">
            <g id="编组-2" transform="translate(60.000000, 166.000000)">
                <g id="Group-12" transform="translate(78.000000, 60.000000)">
                    <mask id="mask-3" fill="white">
                        <use xlink:href="#path-2"></use>
                    </mask>
                    <use id="蒙版" fill="url(#linearGradient-1)" opacity="0.149999991" xlink:href="#path-2"></use>
                    <g id="Group-22" filter="url(#filter-4)" mask="url(#mask-3)" stroke-width="0.818110279">
                        <g transform="translate(49.500000, 50.330127) rotate(30.000000) translate(-49.500000, -50.330127) translate(17.000000, 0.000000)" id="Path-2">
                            <path d="M47.727817,0.661888254 C48.6327394,0.314050824 49.6700972,0.312080778 50.6254148,0.738402842 L50.6254148,0.738402842 L52.8730982,1.74150488 C53.8287092,2.16795786 54.5212697,2.94215855 54.8686093,3.84903605 C55.2160446,4.75616352 55.2181064,5.79608106 54.7924384,6.75380697 L54.7924384,6.75380697 L47.6917061,22.7308755 C47.268459,23.6831549 46.5015712,24.3753652 45.6019954,24.7252558 C44.7026698,25.0750491 43.6707686,25.0826753 42.7173248,24.6660612 L42.7173248,24.6660612 L32.2437394,20.0895534 C31.8614558,19.9225119 31.4477028,19.9253994 31.0869724,20.0654128 C30.7264917,20.2053294 30.4189218,20.4822198 30.2488351,20.863458 L30.2488351,20.863458 L19.1042615,45.8433026 L23.5336051,47.8243465 C24.4889214,48.251616 25.1808639,49.0264526 25.5274354,49.933679 C25.8741023,50.841155 25.8752458,51.8811341 25.4486858,52.8385208 C25.1203951,53.5753483 24.5663202,54.188224 23.8668077,54.5881312 L23.8668077,54.5881312 L8.72811502,63.242833 C7.81972769,63.7621528 6.78724339,63.8634311 5.85226871,63.6073216 C4.91709719,63.3511582 4.07952931,62.7374879 3.56110256,61.8271855 C3.33478247,61.4297914 3.18202566,60.9946809 3.11018854,60.5428422 L3.11018854,60.5428422 L0.456856322,43.8540015 C0.292246804,42.8186461 0.562038288,41.8144424 1.13137366,41.0278538 C1.70048587,40.2415735 2.56894395,39.6727379 3.6019499,39.5078722 C4.32121277,39.3930793 5.05825482,39.4885181 5.72476134,39.7827344 L5.72476134,39.7827344 L9.91965071,41.6344862 L24.1714514,9.52026007 C24.5953898,8.56498057 25.3649025,7.87133337 26.2672537,7.52190159 C27.1693543,7.17256686 28.2041803,7.1672945 29.1589147,7.58848767 L29.1589147,7.58848767 L39.7072407,12.2420152 C40.090229,12.4109754 40.5053514,12.4089444 40.8672997,12.2689316 C41.2289976,12.1290156 41.5376342,11.8512706 41.7078148,11.468538 L41.7078148,11.468538 L45.6243314,2.66114033 C46.0500198,1.70377601 46.8226441,1.00982193 47.727817,0.661888254 Z" stroke="url(#radialGradient-6)" fill="url(#radialGradient-5)"></path>
                            <path d="M56.271885,37.417421 C57.1802723,36.8981013 58.2127566,36.7968229 59.1477313,37.0529324 C60.0829028,37.3090958 60.9204707,37.9227662 61.4388974,38.8330686 C61.6652175,39.2304626 61.8179743,39.6655731 61.8898115,40.1174118 L61.8898115,40.1174118 L64.5431437,56.8062525 C64.7077532,57.841608 64.4379617,58.8458116 63.8686263,59.6324003 C63.2995141,60.4186805 62.431056,60.9875162 61.3980501,61.1523819 C60.6787872,61.2671748 59.9417452,61.1717359 59.2752387,60.8775197 L59.2752387,60.8775197 L55.0803493,59.0257679 L40.8285486,91.139994 C40.4046102,92.0952735 39.6350975,92.7889207 38.7327463,93.1383524 C37.8306457,93.4876872 36.7958197,93.4929595 35.8410853,93.0717664 L35.8410853,93.0717664 L25.2927593,88.4182388 C24.909771,88.2492786 24.4946486,88.2513096 24.1327003,88.3913224 C23.7710024,88.5312384 23.4623658,88.8089835 23.2921852,89.191716 L23.2921852,89.191716 L19.3756686,97.9991137 C18.9499802,98.956478 18.1773559,99.6504321 17.272183,99.9983658 C16.3672606,100.346203 15.3299028,100.348173 14.3745852,99.9218512 L14.3745852,99.9218512 L12.1269018,98.9187492 C11.1712908,98.4922962 10.4787303,97.7180955 10.1313907,96.811218 C9.78395542,95.9040905 9.78189363,94.864173 10.2075616,93.9064471 L10.2075616,93.9064471 L17.3082939,77.9293785 C17.731541,76.9770991 18.4984288,76.2848888 19.3980046,75.9349982 C20.2973302,75.585205 21.3292314,75.5775788 22.2826752,75.9941928 L22.2826752,75.9941928 L32.7562606,80.5707006 C33.1385442,80.7377422 33.5522972,80.7348547 33.9130276,80.5948412 C34.2735083,80.4549246 34.5810782,80.1780343 34.7511649,79.7967961 L34.7511649,79.7967961 L45.8957385,54.8169515 L41.4663949,52.8359075 C40.5110786,52.408638 39.8191361,51.6338015 39.4725646,50.726575 C39.1258977,49.819099 39.1247542,48.7791199 39.5513142,47.8217333 C39.8796049,47.0849057 40.4336798,46.47203 41.1331923,46.0721228 L41.1331923,46.0721228 Z" stroke="url(#linearGradient-8)" fill-opacity="0.7" fill="url(#linearGradient-7)"></path>
                        </g>
                    </g>
                </g>
            </g>
        </g>
    </g>
</svg>

<svg width="100" height="100" xmlns="http://www.w3.org/2000/svg" xmlns:xlink="http://www.w3.org/1999/xlink"><defs><linearGradient x1="50%" y1="0" x2="50%" y2="100%" id="b"><stop stop-color="#f0c002" offset="0"/><stop stop-color="#f9e204" stop-opacity="0" offset="100%"/></linearGradient><linearGradient x1="50%" y1="50%" x2="36.462%" y2="13.305%" id="h"><stop stop-color="#ffd059" offset="0"/><stop stop-color="#fffb79" offset="100%"/></linearGradient><linearGradient x1="64.781%" y1="6.831%" x2="50%" y2="50%" id="g"><stop stop-color="#fff" stop-opacity=".9" offset="0"/><stop stop-color="#fff" stop-opacity="0" offset="100%"/></linearGradient><radialGradient cx="93.605%" cy="5.396%" fx="93.605%" fy="5.396%" r="104.952%" gradientTransform="scale(-1 -.86561) rotate(-57.097 -.107 1.716)" id="f"><stop stop-color="#fff" stop-opacity=".701" offset="0"/><stop stop-color="#3bc164" stop-opacity=".2" offset="100%"/></radialGradient><radialGradient cx="93.441%" cy="9.302%" fx="93.441%" fy="9.302%" r="92.876%" gradientTransform="matrix(-.50635 .74644 -.83025 -.422 1.485 -.565)" id="e"><stop stop-color="#fff" offset="0"/><stop stop-color="#fff" stop-opacity="0" offset="100%"/></radialGradient><filter x="-16.2%" y="-10.4%" width="132.3%" height="120.9%" filterUnits="objectBoundingBox" id="c"><feOffset dy="2" in="SourceAlpha" result="shadowOffsetOuter1"/><feGaussianBlur stdDeviation="1.5" in="shadowOffsetOuter1" result="shadowBlurOuter1"/><feColorMatrix values="0 0 0 0 0.0909838916 0 0 0 0 0.0532071747 0 0 0 0 0.177747662 0 0 0 0.0954766757 0" in="shadowBlurOuter1" result="shadowMatrixOuter1"/><feMerge><feMergeNode in="shadowMatrixOuter1"/><feMergeNode in="SourceGraphic"/></feMerge></filter><circle id="a" cx="50" cy="50" r="50"/></defs><g fill="none" fill-rule="evenodd"><mask id="d" fill="#fff"><use xlink:href="#a"/></mask><use fill="url(#b)" opacity=".15" xlink:href="#a"/><g filter="url(#c)" mask="url(#d)" stroke-width=".818"><path d="M47.728.662a3.769 3.769 0 0 1 2.897.076l2.248 1.004a3.78 3.78 0 0 1 1.996 2.107c.347.907.35 1.947-.077 2.905l-7.1 15.977a3.78 3.78 0 0 1-2.09 1.994 3.77 3.77 0 0 1-2.885-.059L32.244 20.09a1.516 1.516 0 0 0-1.995.774l-11.145 24.98 4.43 1.98a3.78 3.78 0 0 1 1.993 2.11 3.792 3.792 0 0 1-.078 2.905 3.793 3.793 0 0 1-1.582 1.75L8.728 63.242a3.77 3.77 0 0 1-2.876.364 3.777 3.777 0 0 1-2.29-1.78 3.801 3.801 0 0 1-.452-1.284L.457 43.854a3.79 3.79 0 0 1 .674-2.826 3.78 3.78 0 0 1 4.593-1.245l4.196 1.851L24.17 9.52a3.78 3.78 0 0 1 2.096-1.998 3.769 3.769 0 0 1 2.892.066l10.548 4.654a1.516 1.516 0 0 0 2-.773l3.917-8.808a3.78 3.78 0 0 1 2.104-2z" stroke="url(#e)" fill="url(#f)" transform="rotate(30 41 82.053)"/><path d="M56.272 37.417a3.77 3.77 0 0 1 2.876-.364c.935.256 1.772.87 2.29 1.78.227.397.38.833.452 1.284l2.653 16.69a3.79 3.79 0 0 1-.674 2.825 3.78 3.78 0 0 1-4.593 1.245l-4.196-1.851L40.83 91.14a3.78 3.78 0 0 1-2.096 1.998 3.769 3.769 0 0 1-2.892-.066l-10.548-4.654a1.516 1.516 0 0 0-2 .773L19.375 98a3.78 3.78 0 0 1-2.104 2 3.769 3.769 0 0 1-2.897-.077l-2.248-1.003a3.78 3.78 0 0 1-1.996-2.108 3.792 3.792 0 0 1 .077-2.905l7.1-15.977a3.78 3.78 0 0 1 2.09-1.994 3.77 3.77 0 0 1 2.885.06l10.473 4.576a1.516 1.516 0 0 0 1.995-.774l11.145-24.98-4.43-1.981a3.78 3.78 0 0 1-1.993-2.11 3.792 3.792 0 0 1 .078-2.904 3.793 3.793 0 0 1 1.582-1.75z" stroke="url(#g)" fill-opacity=".7" fill="url(#h)" transform="rotate(30 41 82.053)"/></g></g></svg>
